X:298
T:Blaze Away 3 
C:Joe Buchanan's Scottish Tome - Page 458.0
I:458 0
Z:Carl Allison
R:Jig
L:1/8
M:6/8
K:F
a3 f3 | e3 f3 | d6 | c3 (A2 B) |
c3 d3 | e3 f3 | b6- | b2 b (a2 b) |
a3 g3 |  c'3 a3 | g3 f3- | f2 f (e2 f) |
g3 d3 | e3f3 | a2 g ^f2 g | c'2 c' =b2 c' | 
c'3 f3 | e3 f3 | d6 | c3 (A2 B) | 
c3 f3 | b3 a3 | g6 | d6 | 
d3 b3 | a3 g3 |  c'3 a3- | a2 a b2 a | 
a3 g3 | d3 e3 | f6- | f3 z f2 |]
W:Errata: Changed the first note in the last measure to a count of 3 vs 2.

